X:1
T:Title
%%score ( 1 2 ) { ( 3 5 ) | 4 }
L:1/8
Q:1/4=100
M:4/4
K:Eb
V:1 treble nm="Grand Piano, Piano"
V:2 treble 
V:3 bass nm="Grand Piano, Piano"
V:5 bass 
V:4 bass 
V:1
 [EG]4 F2- [DF]2 | E8 | [EA]2 [EG]2 [CF]2 E2 | [EG]3 [EG] [DF]4 | [DB]4 [DG]2 [DF]2 | E4 [EF]4 | %6
 [EG]4 [DF]4 | E6 z2 | [EB]4 [DA]2 [EG]2 | [Ec]4 [EB]4 | B2 G2 z2 A2 | [EG]4 [DF]2 F2 | %12
 [GB]4 [Gc]2 [Gd]2 | [Ge]4 F2 GA | [EG]4 [DF]4 | [B,E]8 |] %16
V:2
 z4 E2 z2 | D2 C4 B,2 | x8 | x8 | x8 | x8 | x8 | x8 | x8 | x8 | E4 E4 | x8 | x8 | z4 E4 | x8 | %15
 x8 |] %16
V:3
 B,4 A,4 | G,8 | A,2 B,2 C2 =A,2 | z4 B,4 | B,4 B,2 A,2 | G,4 C4 | B,4 B,2 A,2 | G,6 z2 | %8
 B,4 B,2 B,2 | C4 E4 | E4 A,4 | B,4 B,2 D2 | D4 z4 | C4 z4 | B,6 A,2 | G,8 |] %16
V:4
 E,4 =B,,4 | C,4 z4 | C,2 B,,2 A,,2 C,2 | B,,3 B,, B,,2 z2 | G,,4 B,,2 B,,2 | C,4 A,,4 | %6
 B,,4 B,,4 | E,6 z2 | G,4 F,2 E,2 | A,4 G,4 | G,,4 C,4 | B,,4 z2 A,2 | G,2 z2 E,2 D,2 | %13
 C,2 z2 A,,4 | B,,8 | E,8 |] %16
V:5
 x8 | z4 _D,4 | x8 | B,3 B, z2 A,,2 | x8 | x8 | x8 | x8 | x8 | x8 | x8 | x8 | z2 F,2 C2 =B,2 | %13
 z2 B,,2 C4 | x8 | x8 |] %16

